!!!COM:	Busnoys, Antoine
!!!CDT:	~1430///-1492/11/06
!!!OTL:	Vostre gracieuse acointance
!!!AGN:	Song; Chanson
!!!SCT:	Bus3062
!!!SCA:	Bus3062
!!!voices:	3
**kern	**kern	**kern
*staff3	*staff2	*staff1
*Ivox	*Ivox	*Ivox
*I"Contra	*I"Tenor	*I"Superius
*I'C	*I'T	*I'S
*clefF4	*clefGv2	*clefG2
*k[b-]	*k[b-]	*k[b-]
*M3/1	*M3/1	*M3/1
*met(O)	*met(O)	*met(O)
=1-	=1-	=1-
!	!	!LO:TX:Z=29:t=Rondeau
1GG	1G	1g
2.G	1B-	1g
4F	.	.
1E	1c	1g
=2	=2	=2
1D	0d	1f
1BB-	.	0b-
1GG	1d	.
=3	=3	=3
2AA	2c	2cc
1BB-	2.f	1dd
.	4d	.
2GG	1g	2b-
1D	.	1a
.	2f#i	.
=4	=4	=4
1GG	1g	1g
0D	2f	1r
.	1d	.
.	.	2.f
.	2B-	.
.	.	4g
=5	=5	=5
2E	2c	2a
1G	2B-	2.b-
.	1G	.
.	.	4g
2E	.	2.g
1D	1A	.
.	.	4f#i
.	.	4f#i
.	.	4e
=6	=6	=6
1GG	1G	0.g
2C	1r	.
2E-i	.	.
1D	1B-	.
=7	=7	=7
1C	1c	1r
0GG	2B-	1r
.	1B-	.
.	.	1b-
.	2G	.
=8	=8	=8
1r	1A	1cc
0GG	1G	2b-
.	.	1b-
.	1r	.
.	.	2g
=9	=9	=9
1D	1F	1a
0GG	2G	1g
.	2.B-	.
.	.	1r
.	4c	.
.	[2d	.
=10	=10	=10
1D	4d]	1f
.	4c	.
.	2A	.
1GG	2B-	2g
.	2G	2.b-
2BB-	2r	.
.	.	4cc
2GG	[2B-	[2dd
=11	=11	=11
1D	4B-]	4dd]
.	4A	4cc
.	2F	2a
1GG	2G	2b-
.	2B-	2g
2r	2A	2r
2G	[2d	[2b-
=12	=12	=12
1D	4d]	4b-]
.	4c	4a
.	4B-	2f
.	4A	.
2r	1G	2g
2GG	.	2b-
2C	1F	2a
[2BB-	.	[2dd
=13	=13	=13
4BB-]	2r	4dd]
4C	.	4cc
2D	2f	4b-
.	.	4a
2GG	2g	1g
2C	2e	.
1D	2d	1f
.	2f	.
=14	=14	=14
2C	2e	2cc
2GG	2.d	2.b-
2G	.	.
.	4c	4a
2F	2A	2a
2.E	2B-	2.g
.	2c	.
4D	.	4e
=15	=15	=15
0.DN	0dN	0.fN
.	1r	.
=16	=16	=16
1BB-	1d	1r
1D	1d	2.f
.	.	4g
1F	2.c	2a
.	.	2g
.	4B-	.
=17	=17	=17
2G	1G	1b-
2GG	.	.
2r	2F	2a
2GG	2G	1g
1D	1A	.
.	.	2f#i
=18	=18	=18
2G	2B-	2g
1F	2c	2.a
.	2A	.
.	.	4g
2D	1d	4f
.	.	4e
1BB-	.	1d
.	2B-	.
=19	=19	=19
1AA	1c	1e
2BB-	1G	2d
2GG	.	1g
1FF	1c	.
.	.	2a
=20	=20	=20
2F	2A	2cc
2G	2G	2.b-
1D	1A	.
.	.	4a
.	.	2a
1GG	1B-	4g
.	.	4f
.	.	2g
=21	=21	=21
0D	1A	0.a
.	1r	.
1D	1d	.
=22	=22	=22
2AA	2c	1r
2C	2A	.
1GG	1B-	1dd
2AA	2A	2cc
2BB-	[2d	2a
=23	=23	=23
1GG	2d]	1b-
.	2B-	.
2r	2c	2a
1.GG	2G	1dd
.	1B-	.
.	.	2b-
=24	=24	=24
2AA	2A	2cc
2BB-	2G	2g
1GG	2r	1b-
.	2d	.
2r	2c	2a
[2G	2d	[2dd
=25	=25	=25
2G]	2B-	4dd]
.	.	4cc
1B-	1G	2dd
.	.	4b-
.	.	4a
2G	2B-	2.g
1D	1A	.
.	.	4f#i
.	.	4f#i
.	.	4e
=26	=26	=26
0.GGl	0.Gl	0.gl
==	==	==
*-	*-	*-
!!!RDF**kern: l=long note in original notation
!!!RDF**kern: i=editorial accidental
!!!RDF**kern: N=signum congruentiae
!!!ENC:	Gage
!!!END:	2015/05/13/
!!!EED:	Jesse Rodin
!!!EEV:	2015/09/21/
!!!ONB:	Translated from MusicXML and edited on 2015/09/21/ by Craig Sapp
!!muse2ps: C^@{COM}^i2I150v95,95,150Q16
